src/assets/duotone/Devices1.svg

<?xml version="1.0" encoding="UTF-8"?>
<svg width="24" height="24" viewBox="0 0 24 24" xmlns="http://www.w3.org/2000/svg">
 <path d="m15.72 9.69c-2.05-2.06-5.39-2.06-7.44 0-2.06 2.06-2.06 5.39 0 7.44 2.06 2.06 5.39 2.06 7.44 0 2.06-2.06 2.06-5.39 0-7.44zm-3.19 4.25-1.59 1.59c-0.15 0.15-0.34 0.22-0.53 0.22s-0.39-0.07-0.53003-0.22c-0.29-0.29-0.29-0.77 0-1.07l1.59-1.59c0.29-0.29 0.77-0.29 1.07 0 0.29 0.3 0.29 0.78-0.01 1.07z"/>
 <path d="m19.6 5.81c-0.22-0.22-0.5-0.34003-0.81-0.34003s-0.59 0.12002-0.81 0.33002c-0.45 0.45-0.45 1.17 0 1.62 0.22 0.22 0.5 0.34003 0.81 0.34003s0.59-0.12002 0.81-0.33002c0.22-0.22 0.34-0.49999 0.34-0.80999s-0.12-0.6-0.34-0.81z" opacity=".4"/>
 <path d="m6.02 19.39c-0.22-0.22-0.5-0.3401-0.81-0.3401s-0.59 0.1201-0.81 0.3301c-0.22 0.22-0.33999 0.5-0.33999 0.81s0.11999 0.59 0.33999 0.81 0.52 0.33 0.81 0.33 0.59-0.11 0.81-0.34c0.44-0.43 0.44-1.16 0-1.6z" opacity=".4"/>
 <path d="m22.41 12.6c-0.21-0.22-0.5-0.33-0.81-0.34-0.31 0-0.59 0.12-0.81 0.34-0.45 0.45-0.45 1.17 0 1.62 0.22 0.22 0.52 0.33 0.81 0.33s0.59-0.11 0.81-0.33c0.45-0.45 0.45-1.18 0-1.62z" opacity=".4"/>
 <path d="m3.2099 12.6c-0.44-0.44-1.17-0.45-1.62 0s-0.45 1.17 0 1.62c0.22 0.22 0.52 0.33 0.81 0.33s0.59-0.11 0.81-0.33c0.44-0.45 0.44-1.18 0-1.62z" opacity=".4"/>
 <path d="m19.6 19.39c-0.45-0.45-1.17-0.45-1.62 0s-0.45 1.17 0 1.62c0.22 0.22 0.52 0.33 0.81 0.33s0.59-0.11 0.81-0.33 0.34-0.51 0.34-0.81c0-0.31-0.12-0.6-0.34-0.81z" opacity=".4"/>
 <path d="m6.02 5.81c-0.22-0.22-0.5-0.34003-0.81-0.34003s-0.59 0.12002-0.81 0.33002c-0.22 0.22-0.33999 0.5-0.33999 0.81s0.12002 0.58999 0.33002 0.80999c0.22 0.22 0.49999 0.34003 0.80999 0.34003s0.59-0.12003 0.81-0.34003c0.45-0.44 0.44998-1.17 0.00998-1.61z" opacity=".4"/>
 <path d="m12.81 3.0001v0c-0.45-0.45-1.17-0.45-1.62 0-0.22 0.22-0.34 0.51-0.34 0.81 0 0.31 0.12 0.58999 0.33 0.80999 0.22 0.22 0.5 0.34003 0.81 0.34003s0.59-0.12003 0.81-0.34003c0.46-0.45 0.46-1.18 0.01-1.62z" opacity=".4"/>
</svg>

<svg width="24" height="24" viewBox="0 0 24 24"  xmlns="http://www.w3.org/2000/svg">
<path d="M15.7199 9.69002C13.6699 7.63002 10.3299 7.63002 8.27986 9.69002C6.21986 11.75 6.21986 15.08 8.27986 17.13C10.3399 19.19 13.6699 19.19 15.7199 17.13C17.7799 15.07 17.7799 11.74 15.7199 9.69002ZM12.5299 13.94L10.9399 15.53C10.7899 15.68 10.5999 15.75 10.4099 15.75C10.2199 15.75 10.0199 15.68 9.87987 15.53C9.58987 15.24 9.58987 14.76 9.87987 14.46L11.4699 12.87C11.7599 12.58 12.2399 12.58 12.5399 12.87C12.8299 13.17 12.8299 13.65 12.5299 13.94Z" />
<path opacity="0.4" d="M19.6001 5.81C19.3801 5.59 19.1001 5.46997 18.7901 5.46997C18.4801 5.46997 18.2001 5.58999 17.9801 5.79999C17.5301 6.24999 17.5301 6.96998 17.9801 7.41998C18.2001 7.63998 18.4801 7.76001 18.7901 7.76001C19.1001 7.76001 19.3801 7.63999 19.6001 7.42999C19.8201 7.20999 19.9401 6.93 19.9401 6.62C19.9401 6.31 19.8201 6.02 19.6001 5.81Z" />
<path opacity="0.4" d="M6.02005 19.3901C5.80005 19.1701 5.52005 19.05 5.21005 19.05C4.90005 19.05 4.62005 19.1701 4.40005 19.3801C4.18005 19.6001 4.06006 19.8801 4.06006 20.1901C4.06006 20.5001 4.18005 20.7801 4.40005 21.0001C4.62005 21.2201 4.92005 21.3301 5.21005 21.3301C5.50005 21.3301 5.80005 21.2201 6.02005 20.9901C6.46005 20.5601 6.46005 19.8301 6.02005 19.3901Z" />
<path opacity="0.4" d="M22.4101 12.6C22.2001 12.38 21.9101 12.27 21.6001 12.26C21.2901 12.26 21.0101 12.38 20.7901 12.6C20.3401 13.05 20.3401 13.77 20.7901 14.22C21.0101 14.44 21.3101 14.55 21.6001 14.55C21.8901 14.55 22.1901 14.44 22.4101 14.22C22.8601 13.77 22.8601 13.04 22.4101 12.6Z" />
<path opacity="0.4" d="M3.20994 12.5999C2.76994 12.1599 2.03994 12.1499 1.58994 12.5999C1.13994 13.0499 1.13994 13.7699 1.58994 14.2199C1.80994 14.4399 2.10994 14.5499 2.39994 14.5499C2.68994 14.5499 2.98994 14.4399 3.20994 14.2199C3.64994 13.7699 3.64994 13.0399 3.20994 12.5999Z" />
<path opacity="0.4" d="M19.6001 19.39C19.1501 18.94 18.4301 18.94 17.9801 19.39C17.5301 19.84 17.5301 20.56 17.9801 21.01C18.2001 21.23 18.5001 21.34 18.7901 21.34C19.0801 21.34 19.3801 21.23 19.6001 21.01C19.8201 20.79 19.9401 20.5 19.9401 20.2C19.9401 19.89 19.8201 19.6 19.6001 19.39Z" />
<path opacity="0.4" d="M6.02005 5.81C5.80005 5.59 5.52005 5.46997 5.21005 5.46997C4.90005 5.46997 4.62005 5.58999 4.40005 5.79999C4.18005 6.01999 4.06006 6.29999 4.06006 6.60999C4.06006 6.91999 4.18008 7.19998 4.39008 7.41998C4.61008 7.63998 4.89007 7.76001 5.20007 7.76001C5.51007 7.76001 5.79007 7.63998 6.01007 7.41998C6.46007 6.97998 6.46005 6.25 6.02005 5.81Z" />
<path opacity="0.4" d="M12.8101 3.0001C12.8101 2.9901 12.8101 2.9901 12.8101 3.0001C12.3601 2.5501 11.6401 2.5501 11.1901 3.0001C10.9701 3.2201 10.8501 3.5101 10.8501 3.8101C10.8501 4.1201 10.9701 4.40009 11.1801 4.62009C11.4001 4.84009 11.6801 4.96012 11.9901 4.96012C12.3001 4.96012 12.5801 4.84009 12.8001 4.62009C13.2601 4.17009 13.2601 3.4401 12.8101 3.0001Z" />
</svg>
